source/svgs/boat.svg

<svg xmlns="http://www.w3.org/2000/svg" viewBox="0 0 15.22 10.74" preserveAspectRatio="xMinYMax"><path fill="#97D0CB" d="M15.22 6.29l-1.8 3.75c-.22.43-.67.71-1.16.71H1.67c-.2 0-.32-.21-.23-.38v-.01c.14-.29.06-.63-.2-.82l-.02-.01C.62 9.1.26 8.4.26 7.66v-.85H9.7c0-.29.23-.52.52-.52h5zM9.17 3.14H7.33c-.14 0-.26.12-.26.26v2.88c0 .14.12.26.26.26h1.83c.14 0 .26-.12.26-.26V3.4c.01-.14-.11-.26-.25-.26zm3.14 1.05h-2.1c-.14 0-.26.12-.26.26V5.5c0 .14.12.26.26.26h2.1c.14 0 .26-.12.26-.26V4.45c0-.14-.11-.26-.26-.26zM4.19 6.55h2.1c.14 0 .26-.12.26-.26v-2.1c0-.14-.12-.26-.26-.26h-2.1c-.14 0-.26.12-.26.26v2.1c0 .14.12.26.26.26zm-.13-3.93l-.66.52v3.4H.79v-3.4H0v-.52h1.83v-.76h-.67v-.3h.68V0h.26v1.55h.68v.3H2.1v.76l1.96.01zM2.93 4.78h-.85v.78h.85v-.78zm0-1.26h-.85v.78h.85v-.78z"/></svg>

<?xml version="1.0" encoding="utf-8"?>
<!-- Generator: Adobe Illustrator 18.1.0, SVG Export Plug-In . SVG Version: 6.00 Build 0)  -->
<svg version="1.1" id="Layer_1" xmlns="http://www.w3.org/2000/svg" xmlns:xlink="http://www.w3.org/1999/xlink" x="0px" y="0px"
	 viewBox="0 0 15.22 10.74" enable-background="new 0 0 15.22 10.74" xml:space="preserve" preserveAspectRatio="xMinYMax">
<path fill="#97D0CB" d="M15.22,6.29l-1.8,3.75c-0.22,0.43-0.67,0.71-1.16,0.71H1.67c-0.2,0-0.32-0.21-0.23-0.38l0-0.01
	c0.14-0.29,0.06-0.63-0.2-0.82L1.22,9.53C0.62,9.1,0.26,8.4,0.26,7.66V6.81H9.7v0c0-0.29,0.23-0.52,0.52-0.52L15.22,6.29L15.22,6.29
	z M9.17,3.14H7.33c-0.14,0-0.26,0.12-0.26,0.26v2.88c0,0.14,0.12,0.26,0.26,0.26h1.83c0.14,0,0.26-0.12,0.26-0.26V3.4
	C9.43,3.26,9.31,3.14,9.17,3.14z M12.31,4.19h-2.1c-0.14,0-0.26,0.12-0.26,0.26V5.5c0,0.14,0.12,0.26,0.26,0.26h2.1
	c0.14,0,0.26-0.12,0.26-0.26V4.45C12.57,4.31,12.46,4.19,12.31,4.19z M4.19,6.55h2.1c0.14,0,0.26-0.12,0.26-0.26v-2.1
	c0-0.14-0.12-0.26-0.26-0.26h-2.1c-0.14,0-0.26,0.12-0.26,0.26v2.1C3.93,6.43,4.05,6.55,4.19,6.55z M4.06,2.62L3.4,3.14v3.4H0.79
	v-3.4H0V2.62h1.83V1.86H1.16v-0.3h0.68V0H2.1v1.55h0.68v0.3H2.1v0.76L4.06,2.62L4.06,2.62z M2.93,4.78H2.08v0.78h0.85V4.78z
	 M2.93,3.52H2.08V4.3h0.85V3.52z"/>
</svg>
